X: 40
T:Mountain Road, The
M:C|
L:1/8
R:reel
K:D
DE||:F2 AF BFAF |F2 AF EFDE|F2 AF BFAF|G2 GF EDB,D|F2 AF BFAF |F2 AF EFD
E|FA (3AAA BAFB|ABde fd d2||
dcdB ADFA|dcde fgfe|dcdB AFDF|G2 FG EDB,D|dcdB ADFA|dcde fgfe|dcdB AFDF|
G2 FG EDB,D:||
